!!!COM: John Williams
!!!OTL: Droids Motif
!!!GAW: Star Wars: Episode V: The Empire Strikes Back
!!!ODT: 1980
!!!OCL: Frank Lehman
!!!ENC: Claire Arthur
!!!ENC2: John McNamara
**kern	**harte	**harm	**cadence
*clefG^2	*	*	*
*k[f#c#]	*k[f#c#]	*k[f#c#]	*
*D:	*D:	*D:	*
*M4/4	*M4/4	*M4/4	*
*MM110	*MM110	*MM110	*
8aa	.	.	.
=1	=1	=1	=1
8.dddL	D:maj7/7	IM7d	.
16ccc#Jk	.	.	.
16dddLL	.	.	.
16ccc#J	.	.	.
8bb-J	.	.	.
8r	.	.	.
16dddLL	.	.	.
16ccc#JJ	.	.	.
8.bb-	.	.	.
16r	.	.	.
=2	=2	=2	=2
8r	D:maj7/7	.	.
[4.bb-	.	.	.
2bb-_	.	.	.
=3	=3	=3	=3
2.bb-]	D:maj7	IM7	.
8r	.	.	.
8aa	.	.	.
=4	=4	=4	=4
8.dddL	D:maj7/7	IM7d	.
16ccc#Jk	.	.	.
16dddLL	.	.	.
16ccc#J	.	.	.
8bb-J	.	.	.
8r	.	.	.
16dddLL	.	.	.
16ccc#JJ	.	.	.
8.bb-	.	.	.
16r	.	.	.
=5	=5	=5	=5
8r	B-:maj7/3	-VIM7b	.
[4.bb-	.	.	.
8.bb-L]	.	.	.
16aaJk	.	.	.
16bb-LL	.	.	.
16aaJ	.	.	.
[8ff#J	.	.	.
=6	=6	=6	=6
2.ff#]	B-:maj7	-VIM7	CHC
8r	.	.	//
8aa	.	.	.
=7	=7	=7	=7
8.dddL	D:maj7/7	IM7d	.
16ccc#Jk	.	.	.
16eeeLL	.	.	.
16eee-J	.	.	.
8cccnJ	.	.	.
8r	.	.	.
16dddLL	.	.	.
16ccc#JJ	.	.	.
8.bb-	.	.	.
16r	.	.	.
=8	=8	=8	=8
8r	D:maj7	IM7	.
32cc#KLL	.	.	.
16r	.	.	.
32ccnJJk	.	.	.
8bb-L	.	.	.
32b-KL	.	.	.
16r	.	.	.
32b-JJk	.	.	.
4.bb-	.	.	.
[8aa	D/5	.	.
=9	=9	=9	=9
8aa]	D	.	IAC
[4.ff#	.	.	.
2ff#]	.	.	]]
=	=	=	=
*-	*-	*-	*-
